X: 7629
T: Coire An Lochan
R: reel
M: 4/4
K: Adorian
A2ede2A2|edea gedc|BGBdG2GA|BcdB edBG|
A2ede2A2|edega2ag|efge dcBd|e2dBA2AB:|
|:c2gfg2c2|agea gedc|B2AB GABc|dBGB gdBG|
c2gfg2c2|cdega2ag|efge dcBd|e2dBA2AB:|

